X: 70
T: Stumpie
T: Strathspey, G
L: 1/16
M: C
K: G
|: D| GB3g4 af3 g3e| dB3 B3g aA3 A3B| GB3 g4 af3 g3e| dB3 A3c BG3 G3:| 
c| B3d ddd2 c3e eee2| B3d d3B cA3 A3c| B3d ddd2 c3e e3g| dB3 A3c B3G G3c| 
B3d ddd2 c3e eee2| B3d d3B cA3 A3B| GB3 g4 af3 g3e| dB3 A3c BG3 G3|| 
D: Stephanie Wills, Tradition Continued, STEPH 1-94
D: Donald Angus Beaton, A Musical Legacy, DAB4-1985 (as Traditional Mabou Strathspey)
B: DunGreen Collection
